images/FWB.svg

<svg height="250" viewBox="0 0 250 250" width="250" xmlns="http://www.w3.org/2000/svg"><path d="m130.792969 84.941406c1.582031.058594 3.464843.113282 4.34375-.480468 4.753906-1.824219 12.386719-16.101563 20.75-10.136719 8.953125 6.386719-5.761719 16.84375-7.238281 20.753906 8.332031 2.929687 12.25 14.964844 14.480468 24.128906.894532 3.6875-.160156 8.65625.964844 12.066407 14.78125-3.992188 47.222656-12.875 54.054688 5.308593 1.394531 3.71875 1.902343 9.542969.480468 13.996094-1 3.171875-2.292968 6.242187-3.859375 9.171875-8.375 15.164062-27.574219 27.375-44.402343 34.265625l-13.03125 3.859375-6.757813.964844-4.34375 4.828125c-4.914063 3.71875-10.25 8.085937-14.476563 12.546875-5.582031-1.949219-10.523437-4.117188-14.960937-7.238282-3.109375-2.183593-6.421875-6.394531-10.136719-7.722656l-8.203125-.480468-13.515625-2.414063c-8.253906-2.761719-17.546875-6.339844-25.097656-9.652344-3.304688-1.453125-6.722656-1.964843-9.652344-3.863281-6.519531-4.21875-12.773437-8.996094-18.820312-13.511719-4.273438-3.191406-13.25-11.257812-14.960938-16.410156-2.003906-6.023437 4.875-10.695313 7.238282-13.03125 13.050781-12.871094 34.488281-10.519531 57.914062-10.132813-.230469-2.617187-.714844-5.203124-1.445312-7.722656-1.746094-6.386718-6.65625-28.296875 1.445312-31.371094.863281-.796874 1.214844-.84375 2.898438-.964843l3.375 2.894531c1.726562 2.484375 1.984374 5.894531 4.828124 7.238281 1.082032.675781 1.582032.265625 2.894532 0v-.964843c2.214844-3.792969.015625-12.535157 0-16.890626-.039063-13.105468.753906-24.398437 7.242187-30.886718 3.171875-3.175782 10.460938-6.21875 13.996094-.964844 2.839844 3.621094-1.300781 15.671875-1.449219 21.234375.617188.253906 1.265625.417969 1.929688.480469 7.84375-14.089844 9.492187-34.375 18.339844-47.296875 4.589843-6.699219 11.792968-11.472657 22.683593-7.238281 2.414063.980468 4.6875 2.28125 6.757813 3.863281 6.324218 4.824219 3.460937 16.664062 0 22.199219-8.75 13.980468-31.410156 20.523437-34.265625 39.574218zm-16.894531 38.609375c-.132813-11.386719 3.890624-20.789062 9.171874-27.027343 1.613282-1.902344 4.585938-2.457032 5.789063-4.824219-1.644531-1.414063-1.019531-2.960938-3.859375-3.378907-.886719.597657-2.75.527344-4.34375.484376-.253906-.617188-.417969-1.269532-.484375-1.933594l.484375-.480469c1.972656.046875 3.941406-.28125 5.792969-.964844l1.445312-6.757812c2.824219-6.847657 8.882813-14.601563 14.480469-18.824219 10.195312-7.6875 23.726562-14.839844 19.789062-32.335938-1.851562-1.207031-3.246093-3.421874-5.3125-4.339843-20.128906-8.972657-26.613281 24.109375-30.886718 37.160156-1.527344 4.660156-2.714844 15.359375-6.757813 16.890625-1.414062 1.335938-3.785156.945312-5.789062.484375-3.71875-6.316406-.253907-15.3125-.484375-23.167969-1.40625-.886718-1.402344-1.320312-3.859375-1.445312-6.527344 6.46875-6.765625 5.949218-9.171875 16.890625-2.53125 11.519531 4.207031 30.46875-3.859375 36.195312-.8125.652344-1.515625.792969-2.894531.96875-1.511719-1.351562-3.636719-2.222656-4.828126-3.863281-1.859374-2.554688-1.78125-5.796875-5.792968-6.273438-4.230469 8.527344-.683594 21.875 1.933594 29.441407 1.195312 3.457031 2.636718 9.808593 7.71875 7.238281 5.957031-5.800781 9.597656-11.601562 21.71875-10.136719zm35.234374-45.847656c-2.601562 2.660156-7.046874 4.710937-8.6875 8.203125 1.976563.417969 2.96875.761719 3.378907 2.898438h-.96875c-2.425781-2.367188-9.574219-.34375-12.0625 1.445312.382812.492188.167969.132812.480469.964844h1.449218c3.308594-2.207032 9.773438.511718 12.546875.964844 2.917969-4.203126 9.914063-8.128907 6.273438-14.476563zm-14.964843 15.925781c-1.839844 1.472656-4.40625 1.964844-6.273438 3.378906-5.488281 4.15625-10.464843 17.84375-10.617187 27.507813l5.308594 2.898437c-.066407-4.597656 1.957031-8.070312 5.308593-9.171874 6.019531-4.859376 11.273438 2.816406 13.515625 5.308593.058594 2.769531-.265625 5.527344-.964844 8.207031-3.871093 2.652344-5.472656 4.695313-12.066406 3.859376v.964843c2.683594 3.640625.105469 11.074219-.484375 14.480469 2.191407 1.433594 4.5 3.511719 7.242188 4.34375 14.441406 4.375 21.261719-10.136719 24.128906-19.789062.84375-2.835938 2.832031-8.042969 1.929687-12.066407-3.046874-13.613281-10.355468-30.175781-27.027343-29.921875zm-29.4375 22.683594c-2.863281.160156-8.523438.085938-10.617188 1.449219-2.386719 1.546875-1.613281 3.445312-5.308593 4.34375v-3.863281c.503906-.71875.832031-1.542969.964843-2.410157 3.960938-1.195312 6.289063-2.851562 12.0625-2.898437.785157.753906 1.726563 1.050781 2.414063 1.929687.363281.519531.289062.457031.484375 1.449219zm23.648437 4.828125c-.90625 1.414063-1.585937 1.6875-1.929687 3.859375 1.34375 1.28125 1.417969 2.042969 3.859375 2.414062 1.464844-1.488281 2.277344-1.296874 2.414062-4.34375-.871094-.757812-.617187-.949218-1.929687-1.449218-.625-.421875-1.191407-.429688-2.414063-.480469zm-23.167968 4.824219c-5.308594 4.015625-9.433594 4.542968-11.582032 12.066406-4.355468 15.273438 14.753906 24.8125 26.542969 17.855469v-.480469c-2.742187-.605469-3.207031-1.808594-4.824219-3.378906-.035156-1.78125.125-3.5625.484375-5.308594 4.65625-3.109375 4.636719-2.1875 9.652344-.484375v-6.753906c-1.234375-1.804688-1.257813-4.414063-2.414063-6.277344-3.445312-5.519531-8.515624-7.386719-17.859374-7.238281zm90.253906 21.234375c-.761719 9.636719-17.75 27.875-24.617188 32.335937-2.078125 1.351563-4.464844 1.117188-6.753906 2.414063-1.542969.875-8.988281 10.242187-9.652344 12.066406h2.410156c1.722657-1.09375 4.0625-.773437 6.277344-1.449219l11.097656-3.859375c17.75-7.746093 35.671876-22.429687 40.542969-42.953125 5.128907-21.628906-31.0625-17.417968-42.953125-13.03125-3.457031 1.273438-6.773437 1.613282-8.6875 4.34375-1.429687 2.121094-1.335937 5.25-2.414062 7.722656-2.816406 6.460938-12.515625 16.789063-24.132813 13.996094-2.664062-.699218-5.253906-1.667968-7.722656-2.898437v.964843c3.253906 1.832032 6.03125 4.734376 9.652344 6.277344 2.164062.914063 5.121093.519532 6.277343 2.410156h-4.828124c-1.558594-1.011718-3.917969-.667968-5.792969-1.445312-3.582031-1.488281-6.238281-5.015625-9.652344-6.273438-3.023437 6.171876-22.242187 12.660157-29.4375 5.789063 8.558594.171875 13.882813-.277344 20.753906-1.929687v-.484376c-13.105469.519532-21.242187-2.714843-24.617187-13.027343-.8125-2.488281.320312-9.335938-.480469-10.621094-.839844-.972656-1.035156-.902344-2.898437-.964844-3.152344-2.144531-8.132813-.988281-12.546876-1.929687-16.84375-3.59375-37.203124 2.480468-46.332031 8.6875-2.792969 1.898437-8.21875 5.378906-7.722656 10.136718.5625 5.375 10.152344 12.5625 13.996094 15.441407 17.042969 12.777343 37.226562 26.476562 64.671875 28.476562v-.484375c-5.585938-3.257812-9.527344-8.359375-14.476563-12.066406l-8.6875-2.410156c-5.683593-2.460938-11.550781-6.09375-16.410156-9.652344-5.621094-4.121094-10.597656-9.453125-15.925781-13.996094-1.320313-1.128906-.242188-1.765625-2.414063-2.414062-1.433593 1.539062-3.515625 3.226562-5.792969 3.859375v-1.445313c6.976563-6.667968 18.359376-18.273437 33.785157-13.03125v.480469c-2.992188.097656-5.9375.753906-8.6875 1.933594.304687.84375.09375.464843.484375.964843 1.714844 6.4375 7.082031 11.148438 10.617187 15.925782 10.875 14.691406 25.015625 25.640625 40.058594 36.195312 4.71875 3.3125 12.542969 10.582032 18.820313 11.582032 2.914062-5.394532 8.933593-8.734376 12.550781-13.511719 13.324219-17.605469 31.839843-33.253907 37.160156-58.398438-1.625-.558593-4.414063-.515625-6.757813-.480469-1.054687.714844-3.230468.882813-4.824218.964844v-.964844h.480468c1.675782-1.652343 3.539063-1.679687 6.277344-2.414062 11.042969-2.96875 20.007813 3.382812 23.648438 9.652344h-1.449219c-.683594-.464844-1.578125-.472656-2.894531-.484375zm-11.101563-5.308594c-.804687 3.378906-1.609375 6.757813-2.414062 10.136719 2.726562.867187 3.601562 2.832031 6.757812 3.378906.949219-3.195312 2.957031-6.355469 4.34375-9.652344-2.777343-1.871094-3.84375-3.757812-8.6875-3.863281zm-66.121093 4.828125c-.238282.53125-.566407 1.019531-.964844 1.449219.304687.84375.09375.464843.484375.964843l1.445312 1.445313 1.449219-.480469c.160156-.804687.320312-1.609375.484375-2.414062l-.96875-.964844zm-62.742188 1.929688c-3.199219 2.304687-8.289062 1.59375-9.167969 6.273437 2.382813 1.667969 5.480469 5.417969 7.238281 7.722656l.484376-.480469c1.265624-.789062 6.324218-6.445312 5.789062-6.757812-.5-2.25-2.3125-5.96875-4.34375-6.757812zm124.519531 6.757812c-.898437 3.464844-3.609375 4.765625-4.34375 8.203125 1.402344.929687 2.492188 2.441406 3.378907 3.863281l.480468-.484375c2.535156-1.617187 6.144532-5.277343 6.757813-8.6875-2.414063-.75-3.582031-2.367187-6.273438-2.894531zm-117.761719 2.894531c-1.476562 2.8125-4.605468 3.863281-5.308593 7.238281 2.28125 1.527344 3.367187 3.871094 6.273437 4.828126v-.484376c.730469-.683593 3.203125-3.992187 3.378906-4.824218.328126-1.539063-3.195312-6.210938-4.34375-6.757813zm60.328126 5.308594c3.121093 2.242187 1.527343 7.988281-2.414063 8.207031-.492187-.386718-.128906-.171875-.964844-.484375-.386719-1.414062-.550781-2.878906-.480469-4.34375 1.371094-1.023437 2.664063-2.152343 3.859376-3.378906zm6.757812.484375c1.984375.132812 2.296875.546875 3.859375.964844.828125 1.667968 1.605469 2.507812 1.933594 4.824218-1.410157.886719-1.402344 1.324219-3.863281 1.449219-1.363282-2.042969-2.355469-2.613281-2.414063-6.273437.386719-.492188.171875-.132813.484375-.964844zm-8.6875 4.824219h1.449219c.304687-.84375.09375-.46875.480469-.964844l-.480469-1.449219-.964844.484375c-.257813.617188-.417969 1.265625-.484375 1.929688zm10.617188-2.414063c-.191407 1.09375-.441407.523438 0 1.449219.492187.386719.132812.171875.964843.484375v-1.449219zm-62.742188.96875c-.605469 1.300782-1.4375 2.878906-2.410156 3.859375.304687.847657.089844.46875.480468.964844 2.578126 2.703125 7.914063 6.460937 12.066407 7.238281v-.480468c-3.957031-2.71875-5.683594-9.78125-10.136719-11.582032zm104.25 0c-1.289062 4.121094-5.027344 6.371094-6.277344 10.617188h.484375c2.296875-3.15625 7.65625-4.449219 9.171875-8.207032-1.3125-.871093-1.710937-1.820312-3.378906-2.410156zm0 0" fill-rule="evenodd"/></svg>

<svg xmlns="http://www.w3.org/2000/svg" xmlns:xlink="http://www.w3.org/1999/xlink" width="250px" height="250px" viewBox="0 0 250 250" version="1.1">
<g id="surface1">
<path style=" stroke:none;fill-rule:evenodd;fill:rgb(0%,0%,0%);fill-opacity:1;" d="M 130.792969 84.941406 C 132.375 85 134.257812 85.054688 135.136719 84.460938 C 139.890625 82.636719 147.523438 68.359375 155.886719 74.324219 C 164.839844 80.710938 150.125 91.167969 148.648438 95.078125 C 156.980469 98.007812 160.898438 110.042969 163.128906 119.207031 C 164.023438 122.894531 162.96875 127.863281 164.09375 131.273438 C 178.875 127.28125 211.316406 118.398438 218.148438 136.582031 C 219.542969 140.300781 220.050781 146.125 218.628906 150.578125 C 217.628906 153.75 216.335938 156.820312 214.769531 159.75 C 206.394531 174.914062 187.195312 187.125 170.367188 194.015625 L 157.335938 197.875 L 150.578125 198.839844 L 146.234375 203.667969 C 141.320312 207.386719 135.984375 211.753906 131.757812 216.214844 C 126.175781 214.265625 121.234375 212.097656 116.796875 208.976562 C 113.6875 206.792969 110.375 202.582031 106.660156 201.253906 L 98.457031 200.773438 L 84.941406 198.359375 C 76.6875 195.597656 67.394531 192.019531 59.84375 188.707031 C 56.539062 187.253906 53.121094 186.742188 50.191406 184.84375 C 43.671875 180.625 37.417969 175.847656 31.371094 171.332031 C 27.097656 168.140625 18.121094 160.074219 16.410156 154.921875 C 14.40625 148.898438 21.285156 144.226562 23.648438 141.890625 C 36.699219 129.019531 58.136719 131.371094 81.5625 131.757812 C 81.332031 129.140625 80.847656 126.554688 80.117188 124.035156 C 78.371094 117.648438 73.460938 95.738281 81.5625 92.664062 C 82.425781 91.867188 82.777344 91.820312 84.460938 91.699219 L 87.835938 94.59375 C 89.5625 97.078125 89.820312 100.488281 92.664062 101.832031 C 93.746094 102.507812 94.246094 102.097656 95.558594 101.832031 L 95.558594 100.867188 C 97.773438 97.074219 95.574219 88.332031 95.558594 83.976562 C 95.519531 70.871094 96.3125 59.578125 102.800781 53.089844 C 105.972656 49.914062 113.261719 46.871094 116.796875 52.125 C 119.636719 55.746094 115.496094 67.796875 115.347656 73.359375 C 115.964844 73.613281 116.613281 73.777344 117.277344 73.839844 C 125.121094 59.75 126.769531 39.464844 135.617188 26.542969 C 140.207031 19.84375 147.410156 15.070312 158.300781 19.304688 C 160.714844 20.285156 162.988281 21.585938 165.058594 23.167969 C 171.382812 27.992188 168.519531 39.832031 165.058594 45.367188 C 156.308594 59.347656 133.648438 65.890625 130.792969 84.941406 Z M 113.898438 123.550781 C 113.765625 112.164062 117.789062 102.761719 123.070312 96.523438 C 124.683594 94.621094 127.65625 94.066406 128.859375 91.699219 C 127.214844 90.285156 127.839844 88.738281 125 88.320312 C 124.113281 88.917969 122.25 88.847656 120.65625 88.804688 C 120.402344 88.1875 120.238281 87.535156 120.171875 86.871094 L 120.65625 86.390625 C 122.628906 86.4375 124.597656 86.109375 126.449219 85.425781 L 127.894531 78.667969 C 130.71875 71.820312 136.777344 64.066406 142.375 59.84375 C 152.570312 52.15625 166.101562 45.003906 162.164062 27.507812 C 160.3125 26.300781 158.917969 24.085938 156.851562 23.167969 C 136.722656 14.195312 130.238281 47.277344 125.964844 60.328125 C 124.4375 64.988281 123.25 75.6875 119.207031 77.21875 C 117.792969 78.554688 115.421875 78.164062 113.417969 77.703125 C 109.699219 71.386719 113.164062 62.390625 112.933594 54.535156 C 111.527344 53.648438 111.53125 53.214844 109.074219 53.089844 C 102.546875 59.558594 102.308594 59.039062 99.902344 69.980469 C 97.371094 81.5 104.109375 100.449219 96.042969 106.175781 C 95.230469 106.828125 94.527344 106.96875 93.148438 107.144531 C 91.636719 105.792969 89.511719 104.921875 88.320312 103.28125 C 86.460938 100.726562 86.539062 97.484375 82.527344 97.007812 C 78.296875 105.535156 81.84375 118.882812 84.460938 126.449219 C 85.65625 129.90625 87.097656 136.257812 92.179688 133.6875 C 98.136719 127.886719 101.777344 122.085938 113.898438 123.550781 Z M 149.132812 77.703125 C 146.53125 80.363281 142.085938 82.414062 140.445312 85.90625 C 142.421875 86.324219 143.414062 86.667969 143.824219 88.804688 L 142.855469 88.804688 C 140.429688 86.4375 133.28125 88.460938 130.792969 90.25 C 131.175781 90.742188 130.960938 90.382812 131.273438 91.214844 L 132.722656 91.214844 C 136.03125 89.007812 142.496094 91.726562 145.269531 92.179688 C 148.1875 87.976562 155.183594 84.050781 151.542969 77.703125 Z M 134.167969 93.628906 C 132.328125 95.101562 129.761719 95.59375 127.894531 97.007812 C 122.40625 101.164062 117.429688 114.851562 117.277344 124.515625 L 122.585938 127.414062 C 122.519531 122.816406 124.542969 119.34375 127.894531 118.242188 C 133.914062 113.382812 139.167969 121.058594 141.410156 123.550781 C 141.46875 126.320312 141.144531 129.078125 140.445312 131.757812 C 136.574219 134.410156 134.972656 136.453125 128.378906 135.617188 L 128.378906 136.582031 C 131.0625 140.222656 128.484375 147.65625 127.894531 151.0625 C 130.085938 152.496094 132.394531 154.574219 135.136719 155.40625 C 149.578125 159.78125 156.398438 145.269531 159.265625 135.617188 C 160.109375 132.78125 162.097656 127.574219 161.195312 123.550781 C 158.148438 109.9375 150.839844 93.375 134.167969 93.628906 Z M 104.730469 116.3125 C 101.867188 116.472656 96.207031 116.398438 94.113281 117.761719 C 91.726562 119.308594 92.5 121.207031 88.804688 122.105469 L 88.804688 118.242188 C 89.308594 117.523438 89.636719 116.699219 89.769531 115.832031 C 93.730469 114.636719 96.058594 112.980469 101.832031 112.933594 C 102.617188 113.6875 103.558594 113.984375 104.246094 114.863281 C 104.609375 115.382812 104.535156 115.320312 104.730469 116.3125 Z M 128.378906 121.140625 C 127.472656 122.554688 126.792969 122.828125 126.449219 125 C 127.792969 126.28125 127.867188 127.042969 130.308594 127.414062 C 131.773438 125.925781 132.585938 126.117188 132.722656 123.070312 C 131.851562 122.3125 132.105469 122.121094 130.792969 121.621094 C 130.167969 121.199219 129.601562 121.191406 128.378906 121.140625 Z M 105.210938 125.964844 C 99.902344 129.980469 95.777344 130.507812 93.628906 138.03125 C 89.273438 153.304688 108.382812 162.84375 120.171875 155.886719 L 120.171875 155.40625 C 117.429688 154.800781 116.964844 153.597656 115.347656 152.027344 C 115.3125 150.246094 115.472656 148.464844 115.832031 146.71875 C 120.488281 143.609375 120.46875 144.53125 125.484375 146.234375 L 125.484375 139.480469 C 124.25 137.675781 124.226562 135.066406 123.070312 133.203125 C 119.625 127.683594 114.554688 125.816406 105.210938 125.964844 Z M 195.464844 147.199219 C 194.703125 156.835938 177.714844 175.074219 170.847656 179.535156 C 168.769531 180.886719 166.382812 180.652344 164.09375 181.949219 C 162.550781 182.824219 155.105469 192.191406 154.441406 194.015625 L 156.851562 194.015625 C 158.574219 192.921875 160.914062 193.242188 163.128906 192.566406 L 174.226562 188.707031 C 191.976562 180.960938 209.898438 166.277344 214.769531 145.753906 C 219.898438 124.125 183.707031 128.335938 171.816406 132.722656 C 168.359375 133.996094 165.042969 134.335938 163.128906 137.066406 C 161.699219 139.1875 161.792969 142.316406 160.714844 144.789062 C 157.898438 151.25 148.199219 161.578125 136.582031 158.785156 C 133.917969 158.085938 131.328125 157.117188 128.859375 155.886719 L 128.859375 156.851562 C 132.113281 158.683594 134.890625 161.585938 138.511719 163.128906 C 140.675781 164.042969 143.632812 163.648438 144.789062 165.539062 L 139.960938 165.539062 C 138.402344 164.527344 136.042969 164.871094 134.167969 164.09375 C 130.585938 162.605469 127.929688 159.078125 124.515625 157.820312 C 121.492188 163.992188 102.273438 170.480469 95.078125 163.609375 C 103.636719 163.78125 108.960938 163.332031 115.832031 161.679688 L 115.832031 161.195312 C 102.726562 161.714844 94.589844 158.480469 91.214844 148.167969 C 90.402344 145.679688 91.535156 138.832031 90.734375 137.546875 C 89.894531 136.574219 89.699219 136.644531 87.835938 136.582031 C 84.683594 134.4375 79.703125 135.59375 75.289062 134.652344 C 58.445312 131.058594 38.085938 137.132812 28.957031 143.339844 C 26.164062 145.238281 20.738281 148.71875 21.234375 153.476562 C 21.796875 158.851562 31.386719 166.039062 35.230469 168.917969 C 52.273438 181.695312 72.457031 195.394531 99.902344 197.394531 L 99.902344 196.910156 C 94.316406 193.652344 90.375 188.550781 85.425781 184.84375 L 76.738281 182.433594 C 71.054688 179.972656 65.1875 176.339844 60.328125 172.78125 C 54.707031 168.660156 49.730469 163.328125 44.402344 158.785156 C 43.082031 157.65625 44.160156 157.019531 41.988281 156.371094 C 40.554688 157.910156 38.472656 159.597656 36.195312 160.230469 L 36.195312 158.785156 C 43.171875 152.117188 54.554688 140.511719 69.980469 145.753906 L 69.980469 146.234375 C 66.988281 146.332031 64.042969 146.988281 61.292969 148.167969 C 61.597656 149.011719 61.386719 148.632812 61.777344 149.132812 C 63.492188 155.570312 68.859375 160.28125 72.394531 165.058594 C 83.269531 179.75 97.410156 190.699219 112.453125 201.253906 C 117.171875 204.566406 124.996094 211.835938 131.273438 212.835938 C 134.1875 207.441406 140.207031 204.101562 143.824219 199.324219 C 157.148438 181.71875 175.664062 166.070312 180.984375 140.925781 C 179.359375 140.367188 176.570312 140.410156 174.226562 140.445312 C 173.171875 141.160156 170.996094 141.328125 169.402344 141.410156 L 169.402344 140.445312 L 169.882812 140.445312 C 171.558594 138.792969 173.421875 138.765625 176.160156 138.03125 C 187.203125 135.0625 196.167969 141.414062 199.808594 147.683594 L 198.359375 147.683594 C 197.675781 147.21875 196.78125 147.210938 195.464844 147.199219 Z M 184.363281 141.890625 C 183.558594 145.269531 182.753906 148.648438 181.949219 152.027344 C 184.675781 152.894531 185.550781 154.859375 188.707031 155.40625 C 189.65625 152.210938 191.664062 149.050781 193.050781 145.753906 C 190.273438 143.882812 189.207031 141.996094 184.363281 141.890625 Z M 118.242188 146.71875 C 118.003906 147.25 117.675781 147.738281 117.277344 148.167969 C 117.582031 149.011719 117.371094 148.632812 117.761719 149.132812 L 119.207031 150.578125 L 120.65625 150.097656 C 120.816406 149.292969 120.976562 148.488281 121.140625 147.683594 L 120.171875 146.71875 Z M 55.5 148.648438 C 52.300781 150.953125 47.210938 150.242188 46.332031 154.921875 C 48.714844 156.589844 51.8125 160.339844 53.570312 162.644531 L 54.054688 162.164062 C 55.320312 161.375 60.378906 155.71875 59.84375 155.40625 C 59.34375 153.15625 57.53125 149.4375 55.5 148.648438 Z M 180.019531 155.40625 C 179.121094 158.871094 176.410156 160.171875 175.675781 163.609375 C 177.078125 164.539062 178.167969 166.050781 179.054688 167.472656 L 179.535156 166.988281 C 182.070312 165.371094 185.679688 161.710938 186.292969 158.300781 C 183.878906 157.550781 182.710938 155.933594 180.019531 155.40625 Z M 62.257812 158.300781 C 60.78125 161.113281 57.652344 162.164062 56.949219 165.539062 C 59.230469 167.066406 60.316406 169.410156 63.222656 170.367188 L 63.222656 169.882812 C 63.953125 169.199219 66.425781 165.890625 66.601562 165.058594 C 66.929688 163.519531 63.40625 158.847656 62.257812 158.300781 Z M 122.585938 163.609375 C 125.707031 165.851562 124.113281 171.597656 120.171875 171.816406 C 119.679688 171.429688 120.042969 171.644531 119.207031 171.332031 C 118.820312 169.917969 118.65625 168.453125 118.726562 166.988281 C 120.097656 165.964844 121.390625 164.835938 122.585938 163.609375 Z M 129.34375 164.09375 C 131.328125 164.226562 131.640625 164.640625 133.203125 165.058594 C 134.03125 166.726562 134.808594 167.566406 135.136719 169.882812 C 133.726562 170.769531 133.734375 171.207031 131.273438 171.332031 C 129.910156 169.289062 128.917969 168.71875 128.859375 165.058594 C 129.246094 164.566406 129.03125 164.925781 129.34375 164.09375 Z M 120.65625 168.917969 L 122.105469 168.917969 C 122.410156 168.074219 122.199219 168.449219 122.585938 167.953125 L 122.105469 166.503906 L 121.140625 166.988281 C 120.882812 167.605469 120.722656 168.253906 120.65625 168.917969 Z M 131.273438 166.503906 C 131.082031 167.597656 130.832031 167.027344 131.273438 167.953125 C 131.765625 168.339844 131.40625 168.125 132.238281 168.4375 L 132.238281 166.988281 Z M 68.53125 167.472656 C 67.925781 168.773438 67.09375 170.351562 66.121094 171.332031 C 66.425781 172.179688 66.210938 171.800781 66.601562 172.296875 C 69.179688 175 74.515625 178.757812 78.667969 179.535156 L 78.667969 179.054688 C 74.710938 176.335938 72.984375 169.273438 68.53125 167.472656 Z M 172.78125 167.472656 C 171.492188 171.59375 167.753906 173.84375 166.503906 178.089844 L 166.988281 178.089844 C 169.285156 174.933594 174.644531 173.640625 176.160156 169.882812 C 174.847656 169.011719 174.449219 168.0625 172.78125 167.472656 Z M 172.78125 167.472656 "/>
</g>
</svg>
